X: 24315
T: Lough Gill
R: jig
M: 6/8
K: Gmajor
DGG BGG|dGG BGG|DFA DFA|DFA cBA|
DGG BGG|dGG BGG|DFA cBA|AGFG3:|
Bdg bgg|aff gee|A^ce~a3|gag fed|
Bdg bgg|aff gee|ABc dcA|AGFG3:|

